src/assets/img/outline-text/about.svg

<svg width="382" height="77" viewBox="0 0 382 77" fill="none" xmlns="http://www.w3.org/2000/svg">
<path d="M78.4919 74.5001H79.1807L78.9673 73.8453L55.7473 2.56527L55.6349 2.22014H55.2719H25.0319H24.6684L24.5563 2.56592L1.4443 73.8459L1.23217 74.5001H1.91992H26.9759H27.3678L27.4614 74.1196L30.7158 60.8921H49.153L52.3015 74.1159L52.393 74.5001H52.7879H78.4919ZM82.3609 74.0001V74.5001H82.8609H126.493C135.246 74.5001 141.82 72.948 146.123 69.7578L146.124 69.757C150.522 66.4767 152.697 61.5975 152.697 55.2081C152.697 50.4862 151.217 46.5423 148.239 43.4153C145.7 40.7498 141.957 39.0055 137.064 38.1375C141.329 37.1596 144.606 35.4118 146.849 32.858C149.527 29.8071 150.861 26.0869 150.861 21.7281C150.861 15.2636 148.611 10.3799 144.063 7.17258C139.547 3.91699 132.728 2.29247 123.689 2.22015V2.22014H123.685H82.8609H82.3609V2.72014V74.0001ZM124.453 48.9026L124.459 48.9075L124.465 48.9121C125.471 49.6667 125.993 50.7666 125.993 52.2921C125.993 53.8966 125.465 55.0743 124.451 55.8991C123.499 56.6593 121.979 57.0841 119.797 57.0841H107.445V47.7161H119.797C121.98 47.7161 123.501 48.1415 124.453 48.9026ZM173.249 71.2013L173.251 71.2026C178.808 74.1276 185.372 75.5801 192.924 75.5801C200.547 75.5801 207.112 74.128 212.599 71.2013C218.088 68.2737 222.3 64.0246 225.226 58.465C228.153 52.9051 229.604 46.1968 229.604 38.3601C229.604 30.5234 228.153 23.8152 225.226 18.2553C222.3 12.6956 218.088 8.4466 212.599 5.51896C207.112 2.59228 200.547 1.14014 192.924 1.14014C185.372 1.14014 178.808 2.59271 173.251 5.51767L173.249 5.51896C167.76 8.44604 163.514 12.6936 160.516 18.2507L160.513 18.2553C157.587 23.8152 156.136 30.5234 156.136 38.3601C156.136 46.1968 157.587 52.9051 160.513 58.465L160.516 58.4695C163.514 64.0267 167.76 68.2742 173.249 71.2013ZM187.19 22.8728L187.192 22.8711C188.67 21.6618 190.568 21.0401 192.924 21.0401C195.281 21.0401 197.137 21.6621 198.538 22.8638L198.548 22.872L198.558 22.8798C200.032 24.0184 201.137 25.8185 201.838 28.342C202.541 30.8733 202.9 34.2074 202.9 38.3601C202.9 42.4379 202.542 45.7732 201.838 48.379C201.137 50.9014 200.03 52.7431 198.549 53.9559C197.147 55.0906 195.287 55.6801 192.924 55.6801C190.567 55.6801 188.668 55.0935 187.192 53.9562C185.779 52.7416 184.672 50.8969 183.9 48.3736C183.197 45.7686 182.84 42.4351 182.84 38.3601C182.84 34.2107 183.198 30.8786 183.9 28.348C184.674 25.8184 185.782 24.0129 187.19 22.8728ZM305.583 2.72014V2.22014H305.083H279.919H279.419V2.72014V45.2721C279.419 48.8049 278.642 51.4052 277.165 53.1529C275.7 54.816 273.55 55.6801 270.632 55.6801C267.789 55.6801 265.673 54.8187 264.206 53.1529C262.729 51.4052 261.952 48.8049 261.952 45.2721V2.72014V2.22014H261.452H236.18H235.68V2.72014V43.3281C235.68 54.0694 238.548 62.1813 244.372 67.5634L244.374 67.5655C250.262 72.938 259.045 75.5801 270.632 75.5801C282.216 75.5801 290.964 72.939 296.781 67.5655C302.678 62.1838 305.583 54.0711 305.583 43.3281V2.72014ZM381.498 2.72014V2.22014H380.998H311.23H310.73V2.72014V21.1881V21.6881H311.23H333.086V74.0001V74.5001H333.586H358.75H359.25V74.0001V21.6881H380.998H381.498V21.1881V2.72014ZM45.2443 44.2321H34.7382L40.0395 22.1597L45.2443 44.2321ZM118.177 29.8681H107.445V20.5001H118.177C120.283 20.5001 121.771 20.9236 122.725 21.6866C123.657 22.4325 124.157 23.5665 124.157 25.1841C124.157 26.8018 123.657 27.9358 122.725 28.6817C121.771 29.4446 120.283 29.8681 118.177 29.8681Z" stroke="white" stroke-opacity="0.3"/>
</svg>

<svg xmlns="http://www.w3.org/2000/svg" width="382" height="77" fill="none" xmlns:v="https://vecta.io/nano"><path d="M78.492 74.5h.689l-.213-.655-23.22-71.28-.112-.345h-.363-30.24-.364l-.112.346-23.112 71.28-.212.654h.688 25.056.392l.094-.38 3.254-13.228h18.437l3.148 13.224.092.384h.395 25.704zm3.869-.5v.5h.5 43.632c8.753 0 15.327-1.552 19.63-4.742l.001-.001c4.398-3.28 6.573-8.16 6.573-14.549 0-4.722-1.48-8.666-4.458-11.793-2.539-2.666-6.282-4.41-11.175-5.278 4.265-.978 7.542-2.726 9.785-5.28 2.678-3.051 4.012-6.771 4.012-11.13 0-6.465-2.25-11.348-6.798-14.556-4.516-3.256-11.335-4.88-20.374-4.952h0-.004-40.824-.5v.5V74zm42.092-25.098l.006.005.006.005c1.006.755 1.528 1.854 1.528 3.38 0 1.605-.528 2.782-1.542 3.607-.952.76-2.472 1.185-4.654 1.185h-12.352v-9.368h12.352c2.183 0 3.704.425 4.656 1.187zm48.796 22.299l.002.001c5.557 2.925 12.121 4.377 19.673 4.377 7.623 0 14.188-1.452 19.675-4.379s9.701-7.177 12.627-12.736 4.378-12.268 4.378-20.105-1.451-14.545-4.378-20.105-7.138-9.809-12.627-12.736-12.052-4.379-19.675-4.379c-7.552 0-14.116 1.453-19.673 4.378l-.002.001c-5.489 2.927-9.735 7.175-12.733 12.732l-.003.005c-2.926 5.56-4.377 12.268-4.377 20.105s1.451 14.545 4.377 20.105l.003.004c2.998 5.557 7.244 9.805 12.733 12.732zm13.941-48.329l.002-.002c1.478-1.209 3.376-1.831 5.732-1.831s4.213.622 5.614 1.824l.01.008.01.008c1.474 1.139 2.579 2.939 3.28 5.462.703 2.531 1.062 5.865 1.062 10.018 0 4.078-.358 7.413-1.062 10.019-.701 2.522-1.808 4.364-3.289 5.577-1.402 1.135-3.262 1.724-5.625 1.724-2.357 0-4.256-.587-5.732-1.724-1.413-1.215-2.52-3.059-3.292-5.583-.703-2.605-1.06-5.939-1.06-10.013 0-4.149.358-7.482 1.06-10.012.774-2.53 1.882-4.335 3.29-5.475zM305.583 2.72v-.5h-.5-25.164-.5v.5 42.552c0 3.533-.777 6.133-2.254 7.881-1.465 1.663-3.615 2.527-6.533 2.527-2.843 0-4.959-.861-6.426-2.527-1.477-1.748-2.254-4.348-2.254-7.881V2.72v-.5h-.5-25.272-.5v.5 40.608c0 10.741 2.868 18.853 8.692 24.235l.002.002c5.888 5.373 14.671 8.015 26.258 8.015s20.332-2.641 26.149-8.015c5.897-5.382 8.802-13.494 8.802-24.237V2.72zm75.915 0v-.5h-.5-69.768-.5v.5 18.468.5h.5 21.856V74v.5h.5 25.164.5V74 21.688h21.748.5v-.5V2.72zM45.244 44.232H34.738L40.04 22.16l5.205 22.072zm72.933-14.364h-10.732V20.5h10.732c2.106 0 3.594.424 4.548 1.186.932.746 1.432 1.88 1.432 3.498s-.5 2.752-1.432 3.498c-.954.763-2.442 1.186-4.548 1.186z" stroke="#fff" stroke-opacity=".3"/></svg>
